X:4
T:Care Thou Canker
N:page 11 on manuscript
M:C
L:1/8
K:F
c3 d c2 f2 | c2 B2 B2 A2 | F3 A A2 G2 | G2 GB B2 A2 | c3 d c2 f2 | c2 B2 B2 A2 | F3 A G2 (3(GAB) | A2 TG2 F4 :|

